;FLAVOR:Marlin
;TIME:6804
;Filament used: 4.28111m
;Layer height: 0.2
;MINX:106.521
;MINY:106.511
;MINZ:0.12
;MAXX:193.478
;MAXY:193.488
;MAXZ:5.92
;Generated with Cura_SteamEngine 4.6.1
M140 S70
M105
M190 S70
M104 S230
M105
M109 S230
M82 ;absolute extrusion mode
M201 X500.00 Y500.00 Z100.00 E5000.00 ;Setup machine max acceleration
M203 X500.00 Y500.00 Z10.00 E50.00 ;Setup machine max feedrate
M204 P500.00 R1000.00 T500.00 ;Setup Print/Retract/Travel acceleration
M205 X8.00 Y8.00 Z0.40 E5.00 ;Setup Jerk
M220 S100 ;Reset Feedrate
M221 S100 ;Reset Flowrate

G28 ;Home

G92 E0 ;Reset Extruder
G1 Z2.0 F3000 ;Move Z Axis up
G1 X10.1 Y20 Z0.28 F5000.0 ;Move to start position
G1 X10.1 Y200.0 Z0.28 F1500.0 E15 ;Draw the first line
G1 X10.4 Y200.0 Z0.28 F5000.0 ;Move to side a little
G1 X10.4 Y20 Z0.28 F1500.0 E30 ;Draw the second line
G92 E0 ;Reset Extruder
G1 Z2.0 F3000 ;Move Z Axis up

G92 E0
G92 E0
G1 F2700 E-5
;LAYER_COUNT:30
;LAYER:0
M107
G0 F6000 X151.379 Y106.933 Z0.12
;TYPE:SKIRT
G1 F2700 E0
G1 F1200 X152.38 Y106.977 E0.01
G1 X153.209 Y107.046 E0.0183
G1 X155.563 Y107.29 E0.04191
G1 X156.247 Y107.37 E0.04878
G1 X156.817 Y107.454 E0.05453
G1 X157.607 Y107.603 E0.06255
G1 X159.908 Y108.085 E0.08601
G1 X160.612 Y108.243 E0.09321
G1 X161.142 Y108.377 E0.09867
G1 X161.415 Y108.454 E0.1015
G1 X161.74 Y108.552 E0.10488
G1 X164.194 Y109.335 E0.13059
G1 X164.832 Y109.549 E0.1373
G1 X165.354 Y109.741 E0.14285
G1 X165.638 Y109.854 E0.1459
G1 X165.943 Y109.981 E0.1492
G1 X168.277 Y111 E0.17461
G1 X168.93 Y111.297 E0.18177
G1 X169.422 Y111.538 E0.18723
G1 X169.671 Y111.668 E0.19004
G1 X169.964 Y111.827 E0.19336
G1 X172.225 Y113.105 E0.21928
G1 X172.802 Y113.443 E0.22595
G1 X173.264 Y113.731 E0.23138
G1 X173.949 Y114.197 E0.23965
G1 X175.843 Y115.546 E0.26285
G1 X176.443 Y115.985 E0.27027
G1 X176.886 Y116.328 E0.27586
G1 X177.081 Y116.488 E0.27838
G1 X177.339 Y116.707 E0.28175
G1 X179.269 Y118.403 E0.30739
G1 X179.778 Y118.862 E0.31423
G1 X180.217 Y119.283 E0.3203
G1 X180.653 Y119.733 E0.32655
G1 X182.368 Y121.586 E0.35174
G1 X182.847 Y122.119 E0.35889
G1 X183.222 Y122.561 E0.36468
G1 X183.716 Y123.195 E0.3727
G1 X185.12 Y125.068 E0.39605
G1 X185.53 Y125.631 E0.403
G1 X185.818 Y126.048 E0.40806
G1 X185.958 Y126.262 E0.41061
G1 X186.165 Y126.592 E0.4145
G1 X187.49 Y128.801 E0.4402
G1 X187.845 Y129.411 E0.44724
G1 X188.111 Y129.898 E0.45278
G1 X188.231 Y130.133 E0.45541
G1 X188.379 Y130.434 E0.45876
G1 X189.468 Y132.757 E0.48436
G1 X189.776 Y133.442 E0.49185
G1 X189.985 Y133.942 E0.49726
G1 X190.272 Y134.721 E0.50554
G1 X191.034 Y136.915 E0.52872
G1 X191.261 Y137.6 E0.53592
G1 X191.414 Y138.104 E0.54117
G1 X191.541 Y138.58 E0.54609
G1 X191.639 Y138.981 E0.55021
G1 X192.154 Y141.17 E0.57265
G1 X192.314 Y141.889 E0.58
G1 X192.426 Y142.473 E0.58593
G1 X192.544 Y143.272 E0.59399
G1 X192.845 Y145.598 E0.61739
G1 X192.925 Y146.288 E0.62432
G1 X192.975 Y146.867 E0.63012
G1 X193.004 Y147.445 E0.63589
G1 X193.07 Y150.032 E0.66172
G1 X193.078 Y150.712 E0.6685
G1 X193.07 Y151.255 E0.67392
G1 X193.024 Y152.082 E0.68219
G1 X192.839 Y154.462 E0.706
G1 X192.775 Y155.153 E0.71293
G1 X192.714 Y155.666 E0.71808
G1 X192.579 Y156.512 E0.72663
G1 X192.158 Y158.819 E0.75003
G1 X192.019 Y159.527 E0.75723
G1 X191.888 Y160.103 E0.76312
G1 X191.679 Y160.873 E0.77109
G1 X191.033 Y163.087 E0.7941
G1 X190.814 Y163.803 E0.80157
G1 X190.578 Y164.487 E0.80879
G1 X190.333 Y165.117 E0.81553
G1 X189.455 Y167.273 E0.83876
G1 X189.185 Y167.912 E0.84568
G1 X188.947 Y168.433 E0.8514
G1 X188.585 Y169.144 E0.85936
G1 X187.482 Y171.215 E0.88277
G1 X187.128 Y171.858 E0.8901
G1 X186.784 Y172.436 E0.89681
G1 X186.41 Y173.014 E0.90368
G1 X185.104 Y174.954 E0.92701
G1 X184.692 Y175.549 E0.93423
G1 X184.372 Y175.985 E0.93963
G1 X184.055 Y176.388 E0.94475
G1 X183.817 Y176.677 E0.94848
G1 X182.345 Y178.44 E0.9714
G1 X181.885 Y178.977 E0.97845
G1 X181.419 Y179.484 E0.98533
G1 X180.927 Y179.981 E0.9923
G1 X179.225 Y181.638 E1.016
G1 X178.722 Y182.114 E1.02291
G1 X178.312 Y182.482 E1.02841
G1 X177.684 Y183 E1.03653
G1 X175.81 Y184.481 E1.06037
G1 X175.274 Y184.893 E1.06711
G1 X174.808 Y185.231 E1.07286
G1 X174.585 Y185.383 E1.07555
G1 X174.322 Y185.556 E1.07869
G1 X172.145 Y186.941 E1.10444
G1 X171.537 Y187.314 E1.11155
G1 X171.08 Y187.578 E1.11682
G1 X170.806 Y187.727 E1.11993
G1 X170.503 Y187.885 E1.12334
G1 X168.23 Y189.022 E1.1487
G1 X167.59 Y189.33 E1.15579
G1 X167.084 Y189.556 E1.16132
G1 X166.519 Y189.786 E1.16741
G1 X164.105 Y190.696 E1.19315
G1 X163.474 Y190.924 E1.19984
G1 X162.916 Y191.107 E1.2057
G1 X162.366 Y191.266 E1.21141
G1 X159.832 Y191.934 E1.23756
G1 X159.16 Y192.099 E1.24447
G1 X158.687 Y192.203 E1.2493
G1 X158.436 Y192.252 E1.25185
G1 X157.828 Y192.356 E1.25801
G1 X155.497 Y192.718 E1.28154
G1 X154.845 Y192.811 E1.28811
G1 X154.314 Y192.872 E1.29345
G1 X154.033 Y192.897 E1.29626
G1 X153.662 Y192.923 E1.29997
G1 X151.115 Y193.055 E1.32542
G1 X150.374 Y193.083 E1.33282
G1 X149.803 Y193.088 E1.33852
G1 X149.336 Y193.076 E1.34318
G1 X148.945 Y193.059 E1.34708
G1 X146.67 Y192.941 E1.36982
G1 X145.944 Y192.893 E1.37707
G1 X145.381 Y192.84 E1.38272
G1 X144.801 Y192.764 E1.38855
G1 X142.297 Y192.374 E1.41384
G1 X141.553 Y192.248 E1.42137
G1 X140.949 Y192.127 E1.42752
G1 X140.444 Y192.005 E1.4327
G1 X137.875 Y191.33 E1.4592
G1 X137.273 Y191.162 E1.46544
G1 X136.758 Y191.004 E1.47082
G1 X135.968 Y190.724 E1.47918
G1 X133.737 Y189.882 E1.50297
G1 X133.098 Y189.63 E1.50983
G1 X132.599 Y189.418 E1.51524
G1 X132.315 Y189.288 E1.51835
G1 X132.006 Y189.139 E1.52177
G1 X129.731 Y188.002 E1.54715
G1 X129.103 Y187.677 E1.55421
G1 X128.617 Y187.409 E1.55975
G1 X128.393 Y187.277 E1.56234
G1 X128.104 Y187.099 E1.56573
G1 X125.915 Y185.707 E1.59161
G1 X125.351 Y185.337 E1.59834
G1 X124.887 Y185.013 E1.60399
G1 X124.417 Y184.66 E1.60985
G1 X122.417 Y183.078 E1.6353
G1 X121.843 Y182.611 E1.64268
G1 X121.327 Y182.161 E1.64951
G1 X120.838 Y181.702 E1.6562
G1 X119.142 Y180.047 E1.67985
G1 X118.644 Y179.548 E1.68688
G1 X118.252 Y179.132 E1.69259
G1 X118.056 Y178.912 E1.69553
G1 X117.845 Y178.667 E1.69875
G1 X116.233 Y176.736 E1.72385
G1 X115.77 Y176.166 E1.73118
G1 X115.42 Y175.708 E1.73693
G1 X114.975 Y175.074 E1.74466
G1 X113.644 Y173.093 E1.76847
G1 X113.261 Y172.506 E1.77547
G1 X112.907 Y171.921 E1.78229
G1 X112.562 Y171.3 E1.78938
G1 X111.497 Y169.298 E1.81201
G1 X111.132 Y168.589 E1.81996
G1 X110.875 Y168.052 E1.8259
G1 X110.663 Y167.562 E1.83123
G1 X109.699 Y165.193 E1.85675
G1 X109.428 Y164.498 E1.86419
G1 X109.233 Y163.951 E1.86999
G1 X109.064 Y163.417 E1.87558
G1 X108.35 Y160.965 E1.90106
G1 X108.153 Y160.25 E1.90846
G1 X108.022 Y159.721 E1.9139
G1 X107.972 Y159.492 E1.91624
G1 X107.905 Y159.155 E1.91966
G1 X107.439 Y156.599 E1.94559
G1 X107.322 Y155.9 E1.95266
G1 X107.245 Y155.348 E1.95822
G1 X107.166 Y154.535 E1.96637
G1 X106.989 Y152.236 E1.98938
G1 X106.941 Y151.482 E1.99692
G1 X106.921 Y150.924 E2.00249
G1 X106.926 Y150.125 E2.01046
G1 X106.987 Y147.807 E2.0336
G1 X107.017 Y147.038 E2.04128
G1 X107.07 Y146.327 E2.04839
G1 X107.142 Y145.687 E2.05482
G1 X107.447 Y143.345 E2.07838
G1 X107.548 Y142.647 E2.08542
G1 X107.64 Y142.112 E2.09084
G1 X107.742 Y141.62 E2.09585
G1 X107.831 Y141.231 E2.09983
G1 X108.345 Y139.058 E2.12211
G1 X108.533 Y138.309 E2.12982
G1 X108.675 Y137.801 E2.13508
G1 X108.835 Y137.294 E2.14039
G1 X108.935 Y137.003 E2.14346
G1 X109.693 Y134.825 E2.16647
G1 X109.949 Y134.12 E2.17395
G1 X110.159 Y133.588 E2.17966
G1 X110.492 Y132.843 E2.1878
G1 X111.491 Y130.71 E2.2113
G1 X111.792 Y130.092 E2.21816
G1 X112.002 Y129.684 E2.22274
G1 X112.13 Y129.449 E2.22541
G1 X112.339 Y129.084 E2.22961
G1 X113.676 Y126.857 E2.25553
G1 X114.036 Y126.275 E2.26235
G1 X114.369 Y125.771 E2.26838
G1 X114.699 Y125.311 E2.27403
G1 X116.214 Y123.291 E2.29922
G1 X116.657 Y122.715 E2.30647
G1 X117.028 Y122.26 E2.31233
G1 X117.222 Y122.036 E2.31529
G1 X117.444 Y121.788 E2.31861
G1 X119.188 Y119.905 E2.34422
G1 X119.678 Y119.392 E2.3513
G1 X120.065 Y119.008 E2.35674
G1 X120.248 Y118.836 E2.35924
G1 X120.492 Y118.614 E2.36254
G1 X122.452 Y116.891 E2.38858
G1 X122.978 Y116.443 E2.39547
G1 X123.398 Y116.104 E2.40085
G1 X124.068 Y115.608 E2.40917
G1 X125.936 Y114.281 E2.43204
G1 X126.574 Y113.84 E2.43977
G1 X127.171 Y113.457 E2.44685
G1 X127.705 Y113.143 E2.45303
G1 X129.776 Y111.974 E2.47676
G1 X130.377 Y111.644 E2.4836
G1 X130.912 Y111.371 E2.4896
G1 X131.48 Y111.106 E2.49585
G1 X133.813 Y110.087 E2.52125
G1 X134.42 Y109.831 E2.52783
G1 X134.973 Y109.616 E2.53375
G1 X135.261 Y109.514 E2.5368
G1 X135.557 Y109.415 E2.53991
G1 X137.988 Y108.639 E2.56537
G1 X138.678 Y108.43 E2.57257
G1 X139.198 Y108.287 E2.57795
G1 X140.013 Y108.1 E2.58629
G1 X142.277 Y107.628 E2.60937
G1 X142.985 Y107.489 E2.61657
G1 X143.734 Y107.371 E2.62413
G1 X144.378 Y107.296 E2.6306
G1 X146.754 Y107.051 E2.65443
G1 X147.411 Y106.993 E2.66102
G1 X147.845 Y106.964 E2.66536
G1 X148.538 Y106.935 E2.67228
G1 X149.137 Y106.92 E2.67826
G1 X150.293 Y106.911 E2.68979
G1 X151.379 Y106.933 E2.70063
G0 F6000 X151.387 Y106.733
G1 F1200 X152.393 Y106.778 E2.71068
G1 X152.882 Y106.814 E2.71557
G1 X153.23 Y106.847 E2.71906
G1 X155.587 Y107.092 E2.7427
G1 X156.271 Y107.172 E2.74957
G1 X156.852 Y107.257 E2.75543
G1 X157.648 Y107.408 E2.76352
G1 X159.952 Y107.89 E2.787
G1 X160.656 Y108.048 E2.7942
G1 X161.196 Y108.185 E2.79976
G1 X161.469 Y108.262 E2.80259
G1 X161.801 Y108.361 E2.80605
G1 X164.258 Y109.146 E2.83179
G1 X164.896 Y109.36 E2.8385
G1 X165.428 Y109.555 E2.84415
G1 X165.712 Y109.668 E2.8472
G1 X166.023 Y109.798 E2.85057
G1 X168.359 Y110.818 E2.876
G1 X169.012 Y111.115 E2.88316
G1 X169.515 Y111.36 E2.88874
G1 X169.764 Y111.49 E2.89154
G1 X170.062 Y111.652 E2.89493
G1 X172.326 Y112.933 E2.92088
G1 X172.903 Y113.271 E2.92756
G1 X173.374 Y113.564 E2.93309
G1 X174.065 Y114.034 E2.94143
G1 X175.961 Y115.384 E2.96465
G1 X176.561 Y115.823 E2.97207
G1 X177.012 Y116.173 E2.97777
G1 X177.207 Y116.333 E2.98029
G1 X177.471 Y116.557 E2.98374
G1 X179.403 Y118.255 E3.00941
G1 X179.912 Y118.714 E3.01624
G1 X180.36 Y119.143 E3.02243
G1 X180.8 Y119.597 E3.02874
G1 X182.517 Y121.452 E3.05396
G1 X182.996 Y121.985 E3.06111
G1 X183.378 Y122.436 E3.06701
G1 X183.876 Y123.075 E3.07509
G1 X185.282 Y124.951 E3.09849
G1 X185.692 Y125.514 E3.10544
G1 X185.985 Y125.938 E3.11058
G1 X186.125 Y126.152 E3.11313
G1 X186.336 Y126.489 E3.1171
G1 X187.663 Y128.7 E3.14283
G1 X188.018 Y129.31 E3.14987
G1 X188.289 Y129.807 E3.15552
G1 X188.409 Y130.042 E3.15815
G1 X188.56 Y130.349 E3.16156
G1 X189.65 Y132.675 E3.1872
G1 X189.958 Y133.36 E3.19469
G1 X190.171 Y133.87 E3.2002
G1 X190.461 Y134.655 E3.20855
G1 X191.224 Y136.852 E3.23176
G1 X191.451 Y137.537 E3.23896
G1 X191.607 Y138.051 E3.24432
G1 X191.735 Y138.532 E3.24929
G1 X191.833 Y138.935 E3.25343
G1 X192.349 Y141.127 E3.2759
G1 X192.509 Y141.846 E3.28325
G1 X192.623 Y142.441 E3.28929
G1 X192.743 Y143.246 E3.29741
G1 X193.027 Y145.437 E3.31946
G1 X193.123 Y146.265 E3.32777
G1 X193.175 Y146.855 E3.33368
G1 X193.19 Y147.114 E3.33627
G1 X193.203 Y147.44 E3.33953
G1 X193.27 Y150.03 E3.36538
G1 X193.278 Y150.71 E3.37216
G1 X193.27 Y151.263 E3.37768
G1 X193.223 Y152.097 E3.38602
G1 X193.038 Y154.481 E3.40988
G1 X192.974 Y155.172 E3.4168
G1 X192.912 Y155.695 E3.42206
G1 X192.775 Y156.548 E3.43068
G1 X192.354 Y158.857 E3.4541
G1 X192.215 Y159.565 E3.4613
G1 X192.082 Y160.153 E3.46731
G1 X191.871 Y160.929 E3.47533
G1 X191.225 Y163.146 E3.49838
G1 X191.006 Y163.862 E3.50585
G1 X190.765 Y164.559 E3.51321
G1 X190.518 Y165.193 E3.51999
G1 X189.639 Y167.351 E3.54325
G1 X189.369 Y167.99 E3.55017
G1 X189.126 Y168.521 E3.55599
G1 X188.762 Y169.238 E3.56402
G1 X187.657 Y171.312 E3.58747
G1 X187.303 Y171.955 E3.59479
G1 X186.952 Y172.544 E3.60163
G1 X186.576 Y173.126 E3.60854
G1 X185.268 Y175.068 E3.63191
G1 X184.856 Y175.663 E3.63913
G1 X184.53 Y176.107 E3.64462
G1 X184.209 Y176.515 E3.6498
G1 X183.971 Y176.805 E3.65355
G1 X182.496 Y178.57 E3.6765
G1 X182.036 Y179.107 E3.68355
G1 X181.562 Y179.624 E3.69055
G1 X181.067 Y180.124 E3.69757
G1 X179.363 Y181.783 E3.7213
G1 X178.86 Y182.259 E3.72821
G1 X178.441 Y182.634 E3.73382
G1 X177.808 Y183.157 E3.74202
G1 X175.932 Y184.639 E3.76587
G1 X175.396 Y185.051 E3.77262
G1 X174.92 Y185.396 E3.77848
G1 X174.43 Y185.724 E3.78437
G1 X172.249 Y187.112 E3.81016
G1 X171.641 Y187.485 E3.81728
G1 X171.176 Y187.754 E3.82264
G1 X170.902 Y187.903 E3.82575
G1 X170.592 Y188.064 E3.82924
G1 X168.317 Y189.202 E3.85462
G1 X167.677 Y189.51 E3.86171
G1 X167.161 Y189.741 E3.86735
G1 X166.901 Y189.849 E3.87016
G1 X166.589 Y189.973 E3.87351
G1 X164.173 Y190.884 E3.89927
G1 X163.542 Y191.112 E3.90597
G1 X162.973 Y191.299 E3.91194
G1 X162.417 Y191.459 E3.91771
G1 X159.88 Y192.128 E3.94389
G1 X159.208 Y192.293 E3.9508
G1 X158.726 Y192.399 E3.95572
G1 X158.165 Y192.504 E3.96142
G1 X157.859 Y192.553 E3.96451
G1 X155.525 Y192.916 E3.98808
G1 X154.873 Y193.009 E3.99465
G1 X154.332 Y193.071 E4.00008
G1 X154.051 Y193.096 E4.0029
G1 X153.673 Y193.123 E4.00668
G1 X151.123 Y193.255 E4.03216
G1 X150.382 Y193.283 E4.03956
G1 X149.8 Y193.288 E4.04536
G1 X149.327 Y193.276 E4.05009
G1 X148.935 Y193.258 E4.054
G1 X146.656 Y193.141 E4.07677
G1 X145.93 Y193.093 E4.08403
G1 X145.357 Y193.038 E4.08977
G1 X144.77 Y192.961 E4.09568
G1 X142.263 Y192.571 E4.121
G1 X141.519 Y192.445 E4.12853
G1 X140.904 Y192.322 E4.13478
G1 X140.394 Y192.199 E4.14002
G1 X137.821 Y191.523 E4.16656
G1 X137.219 Y191.355 E4.1728
G1 X136.694 Y191.193 E4.17828
G1 X135.897 Y190.911 E4.18672
G1 X133.663 Y190.068 E4.21054
G1 X133.024 Y189.816 E4.2174
G1 X132.516 Y189.599 E4.22291
G1 X132.232 Y189.469 E4.22603
G1 X131.916 Y189.318 E4.22952
G1 X129.639 Y188.18 E4.25492
G1 X129.011 Y187.855 E4.26198
G1 X128.516 Y187.581 E4.26762
G1 X128.292 Y187.449 E4.27022
G1 X127.996 Y187.268 E4.27368
G1 X125.805 Y185.874 E4.29959
G1 X125.241 Y185.504 E4.30632
G1 X124.768 Y185.174 E4.31207
G1 X124.293 Y184.817 E4.318
G1 X122.291 Y183.233 E4.34348
G1 X121.717 Y182.766 E4.35086
G1 X121.191 Y182.307 E4.35782
G1 X120.699 Y181.845 E4.36456
G1 X119 Y180.188 E4.38824
G1 X118.502 Y179.689 E4.39527
G1 X118.102 Y179.265 E4.40109
G1 X117.906 Y179.045 E4.40403
G1 X117.691 Y178.795 E4.40732
G1 X116.078 Y176.862 E4.43244
G1 X115.615 Y176.292 E4.43977
G1 X115.258 Y175.825 E4.44563
G1 X114.809 Y175.185 E4.45343
G1 X113.477 Y173.202 E4.47727
G1 X113.094 Y172.615 E4.48426
G1 X112.733 Y172.019 E4.49122
G1 X112.386 Y171.394 E4.49835
G1 X111.319 Y169.389 E4.52101
G1 X110.954 Y168.68 E4.52897
G1 X110.693 Y168.133 E4.53502
G1 X110.478 Y167.637 E4.54041
G1 X109.513 Y165.266 E4.56595
G1 X109.242 Y164.571 E4.5734
G1 X109.042 Y164.013 E4.57931
G1 X108.964 Y163.773 E4.58183
G1 X108.872 Y163.473 E4.58496
G1 X108.157 Y161.018 E4.61047
G1 X107.96 Y160.303 E4.61787
G1 X107.827 Y159.764 E4.62341
G1 X107.777 Y159.535 E4.62575
G1 X107.708 Y159.191 E4.62925
G1 X107.241 Y156.632 E4.65521
G1 X107.124 Y155.933 E4.66228
G1 X107.046 Y155.37 E4.66795
G1 X106.967 Y154.551 E4.67616
G1 X106.79 Y152.248 E4.69921
G1 X106.742 Y151.494 E4.70675
G1 X106.721 Y150.926 E4.71242
G1 X106.726 Y150.12 E4.72046
G1 X106.787 Y147.799 E4.74363
G1 X106.817 Y147.03 E4.75131
G1 X106.871 Y146.305 E4.75856
G1 X106.944 Y145.661 E4.76503
G1 X107.249 Y143.316 E4.78862
G1 X107.35 Y142.618 E4.79566
G1 X107.444 Y142.073 E4.80118
G1 X107.547 Y141.576 E4.80624
G1 X107.636 Y141.185 E4.81024
G1 X108.151 Y139.009 E4.83256
G1 X108.339 Y138.26 E4.84026
G1 X108.484 Y137.742 E4.84563
G1 X108.646 Y137.23 E4.85099
G1 X108.746 Y136.937 E4.85408
G1 X109.505 Y134.756 E4.87712
G1 X109.761 Y134.051 E4.8846
G1 X109.975 Y133.51 E4.89041
G1 X110.18 Y133.041 E4.89552
G1 X110.311 Y132.758 E4.89863
G1 X111.311 Y130.623 E4.92215
G1 X111.612 Y130.005 E4.92901
G1 X111.827 Y129.588 E4.93369
G1 X111.955 Y129.353 E4.93636
G1 X112.168 Y128.981 E4.94064
G1 X113.506 Y126.752 E4.96658
G1 X113.866 Y126.17 E4.97341
G1 X114.206 Y125.656 E4.97956
G1 X114.539 Y125.191 E4.98526
G1 X116.055 Y123.169 E5.01048
G1 X116.498 Y122.593 E5.01773
G1 X116.877 Y122.129 E5.02371
G1 X117.071 Y121.905 E5.02667
G1 X117.297 Y121.653 E5.03004
G1 X119.044 Y119.767 E5.05569
