;FLAVOR:Marlin
;TIME:9581
;Filament used: 5.3338m
;Layer height: 0.2
;MINX:85.514
;MINY:175.523
;MINZ:0.12
;MAXX:166.458
;MAXY:256.477
;MAXZ:22.92
;Generated with Cura_SteamEngine 4.6.1
M140 S70
M105
M190 S70
M104 S230
M105
M109 S230
M82 ;absolute extrusion mode
M201 X500.00 Y500.00 Z100.00 E5000.00 ;Setup machine max acceleration
M203 X500.00 Y500.00 Z10.00 E50.00 ;Setup machine max feedrate
M204 P500.00 R1000.00 T500.00 ;Setup Print/Retract/Travel acceleration
M205 X8.00 Y8.00 Z0.40 E5.00 ;Setup Jerk
M220 S100 ;Reset Feedrate
M221 S100 ;Reset Flowrate

G28 ;Home

G92 E0 ;Reset Extruder
G1 Z2.0 F3000 ;Move Z Axis up
G1 X10.1 Y20 Z0.28 F5000.0 ;Move to start position
G1 X10.1 Y200.0 Z0.28 F1500.0 E15 ;Draw the first line
G1 X10.4 Y200.0 Z0.28 F5000.0 ;Move to side a little
G1 X10.4 Y20 Z0.28 F1500.0 E30 ;Draw the second line
G92 E0 ;Reset Extruder
G1 Z2.0 F3000 ;Move Z Axis up

G92 E0
G92 E0
G1 F2700 E-5
;LAYER_COUNT:115
;LAYER:0
M107
G0 F6000 X127.934 Y175.977 Z0.12
;TYPE:SKIRT
G1 F2700 E0
G1 F1200 X128.653 Y176.004 E0.00718
G1 X129.369 Y176.057 E0.01434
G1 X130.043 Y176.132 E0.02111
G1 X132.038 Y176.388 E0.04118
G1 X132.749 Y176.489 E0.04834
G1 X133.317 Y176.587 E0.0541
G1 X134.101 Y176.754 E0.06209
G1 X136.094 Y177.223 E0.08252
G1 X136.803 Y177.401 E0.08982
G1 X137.302 Y177.54 E0.09499
G1 X137.796 Y177.695 E0.10015
G1 X138.103 Y177.799 E0.10339
G1 X140.01 Y178.46 E0.12353
G1 X140.685 Y178.704 E0.13069
G1 X141.219 Y178.914 E0.13641
G1 X141.994 Y179.259 E0.14488
G1 X143.804 Y180.104 E0.16481
G1 X144.42 Y180.401 E0.17163
G1 X144.903 Y180.65 E0.17705
G1 X145.362 Y180.908 E0.18231
G1 X145.678 Y181.093 E0.18596
G1 X147.358 Y182.1 E0.20551
G1 X148.013 Y182.504 E0.21318
G1 X148.611 Y182.903 E0.22036
G1 X149.121 Y183.272 E0.22664
G1 X150.733 Y184.477 E0.24672
G1 X151.316 Y184.925 E0.25406
G1 X151.747 Y185.276 E0.2596
G1 X151.961 Y185.46 E0.26242
G1 X152.217 Y185.687 E0.26583
G1 X153.875 Y187.216 E0.28834
G1 X154.413 Y187.728 E0.29575
G1 X154.88 Y188.203 E0.30239
G1 X155.331 Y188.696 E0.30906
G1 X156.681 Y190.23 E0.32945
G1 X157.158 Y190.787 E0.33677
G1 X157.486 Y191.19 E0.34195
G1 X157.983 Y191.857 E0.35025
G1 X159.176 Y193.532 E0.37077
G1 X159.584 Y194.122 E0.37793
G1 X159.879 Y194.574 E0.38332
G1 X160.023 Y194.808 E0.38606
G1 X160.2 Y195.107 E0.38952
G1 X161.332 Y197.1 E0.41239
G1 X161.647 Y197.674 E0.41893
G1 X161.906 Y198.178 E0.42458
G1 X162.036 Y198.45 E0.42759
G1 X162.168 Y198.738 E0.43075
G1 X163.075 Y200.804 E0.45326
G1 X163.35 Y201.458 E0.46034
G1 X163.537 Y201.937 E0.46547
G1 X163.702 Y202.404 E0.47042
G1 X163.839 Y202.818 E0.47477
G1 X164.444 Y204.705 E0.49454
G1 X164.638 Y205.338 E0.50115
G1 X164.788 Y205.881 E0.50677
G1 X164.857 Y206.161 E0.50964
G1 X164.931 Y206.488 E0.51299
G1 X165.403 Y208.722 E0.53577
G1 X165.526 Y209.342 E0.54208
G1 X165.627 Y209.944 E0.54817
G1 X165.731 Y210.785 E0.55663
G1 X165.936 Y212.766 E0.5765
G1 X166.002 Y213.496 E0.58381
G1 X166.037 Y214.066 E0.58951
G1 X166.053 Y214.674 E0.59558
G1 X166.058 Y216.942 E0.61821
G1 X166.05 Y217.591 E0.62469
G1 X166.03 Y218.118 E0.62995
G1 X165.991 Y218.658 E0.63535
G1 X165.959 Y219.005 E0.63883
G1 X165.754 Y221.026 E0.6591
G1 X165.672 Y221.733 E0.6662
G1 X165.593 Y222.278 E0.67169
G1 X165.445 Y223.074 E0.67977
G1 X165.02 Y225.115 E0.70057
G1 X164.873 Y225.778 E0.70735
G1 X164.73 Y226.345 E0.71318
G1 X164.576 Y226.871 E0.71865
G1 X163.889 Y229.039 E0.74135
G1 X163.664 Y229.717 E0.74847
G1 X163.415 Y230.388 E0.75561
G1 X163.164 Y230.991 E0.76213
G1 X162.327 Y232.915 E0.78307
G1 X162.058 Y233.509 E0.78957
G1 X161.827 Y233.984 E0.79484
G1 X161.694 Y234.241 E0.79773
G1 X161.522 Y234.559 E0.80134
G1 X160.406 Y236.537 E0.824
G1 X160.058 Y237.133 E0.83089
G1 X159.791 Y237.564 E0.83595
G1 X159.627 Y237.815 E0.83894
G1 X159.416 Y238.126 E0.84269
G1 X158.105 Y239.976 E0.86531
G1 X157.704 Y240.525 E0.8721
G1 X157.296 Y241.047 E0.87871
G1 X156.849 Y241.577 E0.88562
G1 X155.475 Y243.144 E0.90642
G1 X155.017 Y243.652 E0.91324
G1 X154.62 Y244.068 E0.91898
G1 X154.2 Y244.477 E0.92483
G1 X152.524 Y246.034 E0.94766
G1 X152.03 Y246.48 E0.9543
G1 X151.596 Y246.85 E0.95999
G1 X151.365 Y247.036 E0.96295
G1 X151.109 Y247.235 E0.96618
G1 X149.297 Y248.599 E0.98881
G1 X148.753 Y248.996 E0.99553
G1 X148.319 Y249.296 E1.0008
G1 X148.057 Y249.467 E1.00392
G1 X147.756 Y249.656 E1.00747
G1 X145.836 Y250.813 E1.02983
G1 X145.216 Y251.174 E1.03699
G1 X144.734 Y251.438 E1.04248
G1 X144.011 Y251.795 E1.05052
G1 X142.178 Y252.656 E1.07073
G1 X141.487 Y252.968 E1.07829
G1 X140.999 Y253.174 E1.08358
G1 X140.566 Y253.339 E1.0882
G1 X140.181 Y253.477 E1.09228
G1 X138.34 Y254.12 E1.11174
G1 X137.611 Y254.363 E1.11941
G1 X136.964 Y254.555 E1.12614
G1 X136.302 Y254.725 E1.13296
G1 X134.317 Y255.195 E1.15332
G1 X133.599 Y255.355 E1.16066
G1 X132.885 Y255.488 E1.1679
G1 X132.28 Y255.576 E1.174
G1 X130.244 Y255.843 E1.19449
G1 X129.54 Y255.926 E1.20157
G1 X128.971 Y255.976 E1.20726
G1 X128.741 Y255.99 E1.20956
G1 X128.41 Y256.005 E1.21287
G1 X126.069 Y256.069 E1.23624
G1 X125.395 Y256.077 E1.24296
G1 X124.862 Y256.07 E1.24828
G1 X124.593 Y256.059 E1.25097
G1 X124.255 Y256.039 E1.25435
G1 X121.966 Y255.867 E1.27725
G1 X121.314 Y255.809 E1.28378
G1 X120.749 Y255.743 E1.28946
G1 X120.292 Y255.673 E1.29407
G1 X119.893 Y255.605 E1.29811
G1 X117.945 Y255.251 E1.31787
G1 X117.211 Y255.107 E1.32533
G1 X116.649 Y254.98 E1.33108
G1 X116.069 Y254.827 E1.33706
G1 X113.919 Y254.205 E1.3594
G1 X113.272 Y254.009 E1.36614
G1 X112.705 Y253.819 E1.37211
G1 X112.169 Y253.616 E1.37783
G1 X110.075 Y252.768 E1.40037
G1 X109.405 Y252.485 E1.40763
G1 X108.896 Y252.253 E1.41321
G1 X108.141 Y251.871 E1.42165
G1 X106.351 Y250.92 E1.44188
G1 X105.768 Y250.601 E1.44851
G1 X105.263 Y250.306 E1.45434
G1 X104.574 Y249.863 E1.46252
G1 X102.869 Y248.719 E1.483
G1 X102.278 Y248.309 E1.49018
G1 X101.863 Y248.005 E1.49531
G1 X101.67 Y247.856 E1.49775
G1 X101.39 Y247.632 E1.50132
G1 X99.625 Y246.165 E1.52422
G1 X99.098 Y245.714 E1.53114
G1 X98.674 Y245.329 E1.53686
G1 X98.097 Y244.762 E1.54493
G1 X96.678 Y243.308 E1.5652
G1 X96.19 Y242.795 E1.57227
G1 X95.796 Y242.356 E1.57815
G1 X95.433 Y241.92 E1.58381
G1 X94.011 Y240.13 E1.60663
G1 X93.582 Y239.573 E1.61364
G1 X93.26 Y239.13 E1.61911
G1 X93.115 Y238.919 E1.62166
G1 X92.927 Y238.635 E1.62506
G1 X91.706 Y236.722 E1.6477
G1 X91.343 Y236.136 E1.65458
G1 X91.049 Y235.63 E1.66042
G1 X90.907 Y235.368 E1.66339
G1 X90.762 Y235.089 E1.66653
G1 X89.751 Y233.075 E1.68902
G1 X89.451 Y232.455 E1.69589
G1 X89.214 Y231.928 E1.70166
G1 X88.899 Y231.14 E1.71012
G1 X88.178 Y229.229 E1.7305
G1 X87.961 Y228.632 E1.73684
G1 X87.782 Y228.094 E1.7425
G1 X87.614 Y227.519 E1.74848
G1 X87.021 Y225.286 E1.77153
G1 X86.859 Y224.64 E1.77817
G1 X86.727 Y224.035 E1.78435
G1 X86.63 Y223.491 E1.78987
G1 X86.277 Y221.253 E1.81247
G1 X86.177 Y220.549 E1.81957
G1 X86.116 Y220.02 E1.82488
G1 X86.057 Y219.215 E1.83294
G1 X85.946 Y217.114 E1.85393
G1 X85.92 Y216.433 E1.86073
G1 X85.914 Y215.89 E1.86615
G1 X85.938 Y215.081 E1.87422
G1 X86.042 Y213.011 E1.8949
G1 X86.087 Y212.313 E1.90188
G1 X86.137 Y211.764 E1.90738
G1 X86.167 Y211.513 E1.90991
G1 X86.248 Y210.946 E1.91562
G1 X86.554 Y208.961 E1.93566
G1 X86.677 Y208.231 E1.94305
G1 X86.787 Y207.674 E1.94871
G1 X86.846 Y207.414 E1.95137
G1 X86.925 Y207.094 E1.95466
G1 X87.489 Y204.939 E1.97689
G1 X87.683 Y204.235 E1.98418
G1 X87.855 Y203.675 E1.99002
G1 X88.04 Y203.144 E1.99563
G1 X88.841 Y201.008 E2.01839
G1 X89.098 Y200.351 E2.02543
G1 X89.325 Y199.817 E2.03122
G1 X89.672 Y199.085 E2.03931
G1 X90.584 Y197.256 E2.0597
G1 X90.893 Y196.657 E2.06642
G1 X91.208 Y196.091 E2.07289
G1 X91.582 Y195.474 E2.08009
G1 X92.696 Y193.719 E2.10083
G1 X93.079 Y193.134 E2.1078
G1 X93.405 Y192.665 E2.1135
G1 X93.758 Y192.195 E2.11937
G1 X95.176 Y190.397 E2.14222
G1 X95.598 Y189.878 E2.14889
G1 X95.953 Y189.465 E2.15433
G1 X96.148 Y189.25 E2.15722
G1 X96.383 Y188.999 E2.16065
G1 X97.926 Y187.411 E2.18275
G1 X98.461 Y186.876 E2.1903
G1 X98.888 Y186.474 E2.19615
G1 X99.307 Y186.107 E2.20171
G1 X101.04 Y184.655 E2.22426
G1 X101.584 Y184.212 E2.23126
G1 X102.056 Y183.851 E2.23719
G1 X102.52 Y183.522 E2.24287
G1 X104.39 Y182.259 E2.26539
G1 X104.987 Y181.868 E2.27251
G1 X105.483 Y181.563 E2.27832
G1 X106.192 Y181.168 E2.28641
G1 X107.973 Y180.216 E2.30656
G1 X108.61 Y179.887 E2.31372
G1 X109.129 Y179.638 E2.31946
G1 X109.658 Y179.407 E2.32522
G1 X111.737 Y178.556 E2.34764
G1 X112.409 Y178.292 E2.35484
G1 X112.944 Y178.099 E2.36052
G1 X113.184 Y178.02 E2.36304
G1 X113.499 Y177.922 E2.36633
G1 X115.681 Y177.283 E2.38902
G1 X116.347 Y177.098 E2.39591
G1 X116.848 Y176.973 E2.40106
G1 X117.13 Y176.91 E2.40395
G1 X117.501 Y176.834 E2.40773
G1 X119.739 Y176.423 E2.43043
G1 X120.406 Y176.31 E2.43718
G1 X120.964 Y176.231 E2.4428
G1 X121.806 Y176.149 E2.45125
G1 X123.851 Y175.989 E2.47171
G1 X124.529 Y175.946 E2.47849
G1 X125.07 Y175.926 E2.48389
G1 X125.379 Y175.923 E2.48698
G1 X125.705 Y175.926 E2.49023
G1 X127.934 Y175.977 E2.51248
G0 F6000 X127.942 Y175.777
G1 F1200 X128.661 Y175.804 E2.51966
G1 X129.391 Y175.858 E2.52696
G1 X130.069 Y175.933 E2.53377
G1 X132.067 Y176.19 E2.55387
G1 X132.778 Y176.291 E2.56103
G1 X133.357 Y176.391 E2.56689
G1 X134.146 Y176.56 E2.57495
G1 X136.143 Y177.029 E2.59541
G1 X136.852 Y177.207 E2.60271
G1 X137.361 Y177.349 E2.60798
G1 X137.86 Y177.506 E2.6132
G1 X138.169 Y177.61 E2.61645
G1 X140.078 Y178.271 E2.63661
G1 X140.753 Y178.515 E2.64377
G1 X141.298 Y178.73 E2.64962
G1 X142.079 Y179.077 E2.65815
G1 X143.891 Y179.924 E2.6781
G1 X144.507 Y180.221 E2.68493
G1 X144.999 Y180.475 E2.69045
G1 X145.464 Y180.735 E2.69577
G1 X145.781 Y180.922 E2.69944
G1 X147.463 Y181.929 E2.719
G1 X148.118 Y182.333 E2.72668
G1 X148.728 Y182.74 E2.734
G1 X149.241 Y183.111 E2.74031
G1 X150.855 Y184.319 E2.76043
G1 X151.438 Y184.767 E2.76777
G1 X151.877 Y185.124 E2.77341
G1 X152.091 Y185.308 E2.77623
G1 X152.352 Y185.54 E2.77971
G1 X154.013 Y187.071 E2.80225
G1 X154.551 Y187.583 E2.80966
G1 X155.027 Y188.067 E2.81644
G1 X155.481 Y188.563 E2.82315
G1 X156.833 Y190.1 E2.84357
G1 X157.31 Y190.657 E2.85089
G1 X157.644 Y191.068 E2.85617
G1 X158.146 Y191.741 E2.86455
G1 X159.341 Y193.419 E2.88511
G1 X159.749 Y194.009 E2.89226
G1 X160.049 Y194.469 E2.89774
G1 X160.193 Y194.703 E2.90049
G1 X160.374 Y195.008 E2.90402
G1 X161.508 Y197.004 E2.92693
G1 X161.823 Y197.578 E2.93346
G1 X162.086 Y198.091 E2.93922
G1 X162.351 Y198.657 E2.94545
G1 X163.26 Y200.727 E2.96801
G1 X163.535 Y201.381 E2.97509
G1 X163.726 Y201.869 E2.98032
G1 X163.892 Y202.341 E2.98531
G1 X164.029 Y202.757 E2.98968
G1 X164.635 Y204.647 E3.00948
G1 X164.829 Y205.28 E3.01609
G1 X164.982 Y205.834 E3.02183
G1 X165.051 Y206.114 E3.0247
G1 X165.127 Y206.447 E3.02811
G1 X165.599 Y208.683 E3.05091
G1 X165.722 Y209.303 E3.05722
G1 X165.825 Y209.917 E3.06343
G1 X165.93 Y210.764 E3.07195
G1 X166.135 Y212.748 E3.09185
G1 X166.201 Y213.478 E3.09916
G1 X166.237 Y214.06 E3.10498
G1 X166.253 Y214.674 E3.11111
G1 X166.258 Y216.945 E3.13377
G1 X166.25 Y217.594 E3.14025
G1 X166.23 Y218.131 E3.14561
G1 X166.158 Y219.025 E3.15456
G1 X165.952 Y221.049 E3.17486
G1 X165.87 Y221.756 E3.18196
G1 X165.79 Y222.312 E3.18757
G1 X165.64 Y223.115 E3.19572
G1 X165.215 Y225.159 E3.21655
G1 X165.068 Y225.822 E3.22332
G1 X164.922 Y226.399 E3.22926
G1 X164.767 Y226.931 E3.23479
G1 X164.079 Y229.102 E3.25752
G1 X163.854 Y229.78 E3.26464
G1 X163.599 Y230.464 E3.27193
G1 X163.347 Y231.071 E3.27848
G1 X162.509 Y232.997 E3.29944
G1 X162.24 Y233.591 E3.30595
G1 X162.005 Y234.076 E3.31133
G1 X161.872 Y234.333 E3.31421
G1 X161.697 Y234.657 E3.31789
G1 X160.579 Y236.638 E3.34059
G1 X160.231 Y237.234 E3.34747
G1 X159.959 Y237.674 E3.35263
G1 X159.795 Y237.925 E3.35563
G1 X159.579 Y238.241 E3.35944
G1 X158.267 Y240.094 E3.3821
G1 X157.866 Y240.643 E3.38888
G1 X157.45 Y241.175 E3.39562
G1 X157 Y241.709 E3.40259
G1 X155.624 Y243.278 E3.42341
G1 X155.166 Y243.786 E3.43024
G1 X154.761 Y244.21 E3.43609
G1 X154.337 Y244.623 E3.44199
G1 X152.658 Y246.182 E3.46486
G1 X152.164 Y246.628 E3.4715
G1 X151.722 Y247.006 E3.4773
G1 X151.491 Y247.192 E3.48026
G1 X151.23 Y247.395 E3.48356
G1 X149.415 Y248.761 E3.50622
G1 X148.871 Y249.158 E3.51294
G1 X148.429 Y249.463 E3.5183
G1 X148.167 Y249.634 E3.52142
G1 X147.859 Y249.828 E3.52506
G1 X145.937 Y250.986 E3.54745
G1 X145.317 Y251.347 E3.5546
G1 X144.825 Y251.616 E3.5602
G1 X144.096 Y251.976 E3.56831
G1 X142.261 Y252.838 E3.58854
G1 X141.57 Y253.15 E3.59611
G1 X141.071 Y253.36 E3.60151
G1 X140.634 Y253.527 E3.60618
G1 X140.247 Y253.666 E3.61028
G1 X138.403 Y254.309 E3.62977
G1 X137.674 Y254.552 E3.63743
G1 X137.014 Y254.748 E3.6443
G1 X136.349 Y254.919 E3.65115
G1 X134.36 Y255.39 E3.67155
G1 X133.642 Y255.55 E3.67889
G1 X132.914 Y255.685 E3.68628
G1 X132.306 Y255.774 E3.69241
G1 X130.267 Y256.041 E3.71293
G1 X129.563 Y256.124 E3.72
G1 X128.983 Y256.176 E3.72581
G1 X128.753 Y256.19 E3.72811
G1 X128.415 Y256.205 E3.73149
G1 X126.071 Y256.269 E3.75488
G1 X125.397 Y256.277 E3.76161
G1 X124.854 Y256.269 E3.76703
G1 X124.585 Y256.258 E3.76971
G1 X124.24 Y256.238 E3.77316
G1 X121.948 Y256.066 E3.7961
G1 X121.296 Y256.008 E3.80263
G1 X120.72 Y255.941 E3.80841
G1 X119.857 Y255.801 E3.81714
G1 X117.906 Y255.447 E3.83692
G1 X117.172 Y255.303 E3.84439
G1 X116.599 Y255.174 E3.85025
G1 X116.013 Y255.019 E3.85629
G1 X113.861 Y254.397 E3.87865
G1 X113.214 Y254.201 E3.88539
G1 X112.636 Y254.007 E3.89147
G1 X112.094 Y253.802 E3.89726
G1 X109.997 Y252.952 E3.91983
G1 X109.327 Y252.669 E3.92709
G1 X108.808 Y252.433 E3.93278
G1 X108.048 Y252.048 E3.94128
G1 X106.255 Y251.096 E3.96154
G1 X105.672 Y250.777 E3.96817
G1 X105.157 Y250.475 E3.97413
G1 X104.462 Y250.029 E3.98237
G1 X102.755 Y248.883 E4.00288
G1 X102.164 Y248.473 E4.01006
G1 X101.741 Y248.163 E4.01529
G1 X101.548 Y248.014 E4.01772
G1 X101.262 Y247.785 E4.02138
G1 X99.495 Y246.317 E4.0443
G1 X98.968 Y245.866 E4.05122
G1 X98.536 Y245.474 E4.05704
G1 X98.211 Y245.159 E4.06156
G1 X97.954 Y244.902 E4.06519
G1 X96.533 Y243.446 E4.08549
G1 X96.045 Y242.933 E4.09255
G1 X95.644 Y242.485 E4.09855
G1 X95.277 Y242.044 E4.10427
G1 X93.853 Y240.252 E4.12711
G1 X93.424 Y239.695 E4.13413
G1 X93.095 Y239.244 E4.1397
G1 X92.95 Y239.033 E4.14225
G1 X92.758 Y238.743 E4.14572
G1 X91.536 Y236.827 E4.1684
G1 X91.173 Y236.241 E4.17528
G1 X90.873 Y235.725 E4.18123
G1 X90.731 Y235.463 E4.18421
G1 X90.583 Y235.179 E4.1874
G1 X89.571 Y233.162 E4.20992
G1 X89.271 Y232.542 E4.21679
G1 X89.03 Y232.004 E4.22267
G1 X88.712 Y231.21 E4.23121
G1 X87.99 Y229.298 E4.2516
G1 X87.773 Y228.701 E4.25794
G1 X87.591 Y228.152 E4.26371
G1 X87.421 Y227.571 E4.26975
G1 X86.827 Y225.334 E4.29284
G1 X86.665 Y224.688 E4.29949
G1 X86.531 Y224.072 E4.30578
G1 X86.432 Y223.523 E4.31135
G1 X86.079 Y221.282 E4.33398
G1 X85.979 Y220.578 E4.34108
G1 X85.917 Y220.038 E4.3465
G1 X85.858 Y219.226 E4.35462
G1 X85.746 Y217.122 E4.37565
G1 X85.72 Y216.441 E4.38245
G1 X85.714 Y215.886 E4.38799
G1 X85.739 Y215.071 E4.39612
G1 X85.842 Y212.998 E4.41683
G1 X85.887 Y212.3 E4.42381
G1 X85.939 Y211.741 E4.42941
G1 X86.05 Y210.915 E4.43773
G1 X86.357 Y208.928 E4.45779
G1 X86.48 Y208.198 E4.46518
G1 X86.592 Y207.63 E4.47095
G1 X86.651 Y207.37 E4.47361
G1 X86.731 Y207.043 E4.47697
G1 X87.296 Y204.886 E4.49922
G1 X87.49 Y204.182 E4.50651
G1 X87.665 Y203.611 E4.51247
G1 X87.744 Y203.378 E4.51492
G1 X87.853 Y203.074 E4.51814
G1 X88.655 Y200.935 E4.54094
G1 X88.912 Y200.278 E4.54798
G1 X89.143 Y199.734 E4.55387
G1 X89.493 Y198.996 E4.56202
G1 X90.406 Y197.164 E4.58245
G1 X90.715 Y196.565 E4.58917
G1 X91.037 Y195.988 E4.59577
G1 X91.413 Y195.367 E4.60301
G1 X92.529 Y193.609 E4.62379
G1 X92.912 Y193.024 E4.63077
G1 X93.244 Y192.546 E4.63657
G1 X93.408 Y192.324 E4.63933
G1 X93.601 Y192.072 E4.64249
G1 X95.02 Y190.271 E4.66537
G1 X95.442 Y189.752 E4.67205
G1 X95.805 Y189.33 E4.6776
G1 X96 Y189.115 E4.6805
G1 X96.239 Y188.86 E4.68398
G1 X97.785 Y187.27 E4.70611
G1 X98.32 Y186.735 E4.71366
G1 X98.755 Y186.324 E4.71963
G1 X99.178 Y185.954 E4.72524
G1 X100.914 Y184.5 E4.74784
G1 X101.458 Y184.057 E4.75484
G1 X101.939 Y183.689 E4.76088
G1 X102.408 Y183.356 E4.76662
